X: 378
T: Joan's Placket
P: Longways for as many as will
%R: jig
B: "The Dancing-Master" printed by John Walsh, London
S: 6: CCDM1 http://imslp.org/wiki/The_Compleat_Country_Dancing-Master_(Various) V.1 p.15 #34
Z: 2012-2013 John Chambers <jc:trillian.mit.edu>
B: "The Dancing-Master: Containing Directions and Tunes for Dancing" printed by W. Pearson for John Walsh, London ca. 1709
S: 7: DMDfD http://digital.nls.uk/special-collections-of-printed-music/pageturner.cfm?id=89751228 p.30
M: 6/4
L: 1/4
K: G
% - - - - - - - - - - - - - - - - - - - - - - - - -
G/A/ |\
B3 B>AG | A2A A2d/c/ |\
B>AG AGF | G3 G2 ][ d |\
g2d e2d | g2d e2d |
g2d B>AG | A2A A2d/c/ |\
B2B B>AG | A2A A2d/c/ |\
B>AG A>GF | G3- G2 |]
% - - - - - - - - - - - - - - - - - - - - - - - - -
%%begintext align
%% The first Couple Sides on one Side .|  The same on the other
%% Side :|  Then dance to one another and turn .|  Then dance to
%% one another the second Time and turn :|  The Man goes down
%% on the Woman's Side, and the Woman on the Man's Side, the
%% rest do the same.
%% [DMDfD]
%%endtext

%%sep 1 1 500
%%sep 1 1 500
